X:1
T:Like Dews of the Morning
T:Like Dews of the Morning
T:Charles Hutchinson Gabriel
T:Frances Jane (Fanny) Crosby, 1901
T:Public Domain Courtesy of the Cyber Hymnal™
T:Public Domain Courtesy of the Cyber Hymnal™
C:Charles Hutchinson Gabriel
Z:Public Domain
Z:Courtesy of the Cyber Hymnal™
%%score ( 1 2 ) ( 3 4 )
L:1/8
Q:1/4=108
M:4/4
K:Eb
V:1 treble 
V:2 treble 
V:3 bass 
V:4 bass 
V:1
 [EG]2 | [GB]2 [GB]>[Ac] [GB]2 E[DF] | [EG]2 [EG]>[EA] [EG]3 [EB] | %3
w: 1.~Like|dews of the morn- ing Thy|mer- cies de- scend, And|
w: 2.~Though|tri- als be- fall us, and|clouds may a- rise, We|
w: 3.~Like|dew at the twi- light, when|na- ture, at rest, Has|
 [Ec]2 [Ec]>[Ec] [DB]2 [EG]>[EG] | [DA]2 [EG]>[EG] [DF]3 [EG] | [GB]2 [GB]>[Ac] [GB]2 E[DF] | %6
w: bless- ings un- num- bered our|path- way at- tend; We|feel Thou art with us, we|
w: know that the sun- shine will|break thro’ the skies; In|light or in dark- ness, what-|
w: fold- ed her blos- soms to|sleep on her breast; A-|new with Thy bless- ings our|
 [EG]2 [EG]>[EA] [EG]3 [EB] | [Ec]2 [Fc]>[Fe] [Fd]2 [FB]>[FB] | [Gc]2 [FB]>[E=A] [DB]3 || %9
w: list to Thy voice; O|Je- sus our Sav- ior, in|Thee we re- joice.|
w: e’er it may be, If|Thou art still with us, then|hap- py are we.|
w: cup o- ver- flows, While|gent- ly from la- bor Thou|bidd’st us re- pose.|
"^Refrain" [AB] | [Ge]2 [Be]>[Bf] [Ee]2 [Ac]>[Ac] | [GB]2 [GB]>[EG] [GB]3 [Ge] | d4 [FA]2 c2 | %13
w: ||||
w: We|praise thee, we bless Thee, O|Sav- ior di- vine, We|praise Thee, we|
w: ||||
 B4 [EG]3 [GB] | [Ge]2 [Be]>[Bf] [Ee]2 [Ac]>[Ac] | [GB]2 [GB]>[EG] [GB]3 [GB] | %16
w: |||
w: bless Thee, We|praise Thee, we bless Thee, O|Sav- ior di- vine; All|
w: |||
 [Ac]2 [Ad][Ee] [EB]2 [EG][EG] | [GB]2 [FA]>[DF] E2 |] %18
w: ||
w: hon- or and glo- ry for-|ev- er be Thine.|
w: ||
V:2
 x2 | x6 E x | x8 | x8 | x8 | x6 E x | x8 | x8 | x7 || x | x8 | x8 | (A2 A>A) (A>A) x2 | %13
 (G2 G>G) x4 | x8 | x8 | x8 | x4 E2 |] %18
V:3
 [E,B,]2 | [E,E]2 [E,E]>[E,E] [E,E]2 [G,B,]B, | [E,B,]2 [E,B,]>[E,C] [E,B,]3 [G,B,] | %3
w: ~|~ ~ ~ ~ ~ ~|~ ~ ~ ~ ~|
 A,2 A,>A, [G,B,]2 [E,B,]>[E,B,] | [F,B,]2 [E,B,]>[E,B,] [B,,B,]3 [E,B,] | %5
w: ~ ~ ~ ~ ~ ~|~ ~ ~ ~ ~|
 [E,E]2 [E,E]>[E,E] [E,E]2 [G,B,]B, | [E,B,]2 [E,B,]>[E,C] [E,B,]3 [E,G,] | %7
w: ~ ~ ~ ~ ~ ~|~ ~ ~ ~ ~|
 A,2 [F,=A,]>[A,C] B,2 [D,B,]>[D,B,] | [E,E]2 [F,D]>[F,C] [B,,B,]3 || B, | %10
w: ~ ~ ~ ~ ~ ~|~ ~ ~ ~|~|
 [E,B,]2 [G,B,]>[G,B,] [A,C]2 [A,E]>[A,E] | [E,E]2 [E,E]>[E,B,] [E,E]3 [E,B,] | %12
w: ~ ~ ~ ~ ~ ~|~ ~ ~ ~ ~|
 [B,,B,]2 [B,,B,]>[B,,B,] [B,,D]2 [B,,D]>[B,,D] | [E,E]2 [E,E]>[E,E] [E,B,]3 [E,E] | %14
w: praise Thee, we bless Thee, O|Sav- ior di- vine, *|
 [E,B,]2 [G,B,]>[G,B,] [A,C]2 [A,E]>[A,E] | [E,E]2 [E,E]>[E,B,] [E,E]3 [E,E] | %16
w: ||
 [A,E]2 [A,D][A,C] [G,E]2 [E,B,][E,B,] | [B,,B,]2 [B,,B,]>[B,,A,] [E,G,]2 |] %18
w: ||
V:4
 x2 | x7 B, | x8 | A,2 A,>A, x4 | x8 | x7 B, | x8 | =A,2 B,2 x4 | x7 || B, | x8 | x8 | x8 | x8 | %14
 x8 | x8 | x8 | x6 |] %18

